X:5
T:The Flowers of the Forest
Z:Jack Campin, http://www.campin.me.uk
F:http://www.campin.me.uk/Music/Flodden.abc
I:last edit 28-05-2013
S:Skene MS via Dauney's 'Ancient Scottish Melodies'
N:for the mandour, a 5-string ukulele-like instrument tuned A,DAda
M:C
L:1/8
Q:1/4=80
K:D
[D2d2]  d2 ef  ab   | af   ed B2A2  |[D2d2] d2 efab| afed       [D4A4d4]:|
 AB    =c2 Bc [D2d2]|[D2A2]fe d/B/A3|[D2A2] Bd b2af|[A,3e3] d/e/ d4     |]

